Catalina-light/apps/scalable/pdfstudio.svg

<?xml version="1.0" encoding="UTF-8" standalone="no"?>
<svg
   width="128"
   height="128"
   viewBox="0 0 33.866666 33.866668"
   version="1.1"
   id="svg1015"
   inkscape:version="1.1.2 (0a00cf5339, 2022-02-04)"
   sodipodi:docname="pdfstudio.svg"
   xmlns:inkscape="http://www.inkscape.org/namespaces/inkscape"
   xmlns:sodipodi="http://sodipodi.sourceforge.net/DTD/sodipodi-0.dtd"
   xmlns:xlink="http://www.w3.org/1999/xlink"
   xmlns="http://www.w3.org/2000/svg"
   xmlns:svg="http://www.w3.org/2000/svg"
   xmlns:rdf="http://www.w3.org/1999/02/22-rdf-syntax-ns#"
   xmlns:cc="http://creativecommons.org/ns#"
   xmlns:dc="http://purl.org/dc/elements/1.1/">
  <defs
     id="defs1009">
    <linearGradient
       inkscape:collect="always"
       id="linearGradient873">
      <stop
         style="stop-color:#0b0b0b;stop-opacity:1;"
         offset="0"
         id="stop869" />
      <stop
         style="stop-color:#0b0b0b;stop-opacity:0.85882353;"
         offset="0.68076366"
         id="stop878" />
      <stop
         style="stop-color:#0b0b0b;stop-opacity:0.83137255;"
         offset="0.69925421"
         id="stop888" />
      <stop
         style="stop-color:#0b0b0b;stop-opacity:0.80392157;"
         offset="0.71879315"
         id="stop890" />
      <stop
         style="stop-color:#0b0b0b;stop-opacity:0.78039216;"
         offset="0.73593426"
         id="stop892" />
      <stop
         style="stop-color:#0b0b0b;stop-opacity:0.75686275;"
         offset="0.75022364"
         id="stop894" />
      <stop
         style="stop-color:#0b0b0b;stop-opacity:0.73333333;"
         offset="0.76798755"
         id="stop896" />
      <stop
         style="stop-color:#0b0b0b;stop-opacity:0.08235294;"
         offset="0.9150058"
         id="stop919" />
      <stop
         style="stop-color:#0b0b0b;stop-opacity:0.07058824;"
         offset="0.92246956"
         id="stop917" />
      <stop
         style="stop-color:#0b0b0b;stop-opacity:0.05882353;"
         offset="0.92918676"
         id="stop915" />
      <stop
         style="stop-color:#0b0b0b;stop-opacity:0.04705882;"
         offset="0.93840873"
         id="stop912" />
      <stop
         style="stop-color:#0b0b0b;stop-opacity:0.03137255;"
         offset="0.94760686"
         id="stop910" />
      <stop
         style="stop-color:#0b0b0b;stop-opacity:0.02352941;"
         offset="0.95380515"
         id="stop908" />
      <stop
         style="stop-color:#0b0b0b;stop-opacity:0.01568627;"
         offset="0.95886087"
         id="stop906" />
      <stop
         style="stop-color:#0b0b0b;stop-opacity:0.01176471;"
         offset="0.96356124"
         id="stop904" />
      <stop
         style="stop-color:#0b0b0b;stop-opacity:0.00784314;"
         offset="0.96845078"
         id="stop902" />
      <stop
         style="stop-color:#0b0b0b;stop-opacity:0.00392157;"
         offset="0.97347641"
         id="stop900" />
      <stop
         style="stop-color:#0b0b0b;stop-opacity:0;"
         offset="0.97812337"
         id="stop886" />
      <stop
         style="stop-color:#0b0b0b;stop-opacity:0;"
         offset="0.98456311"
         id="stop884" />
      <stop
         style="stop-color:#0b0b0b;stop-opacity:0;"
         offset="0.98700982"
         id="stop882" />
      <stop
         style="stop-color:#0b0b0b;stop-opacity:0;"
         offset="0.98924524"
         id="stop880" />
      <stop
         style="stop-color:#0b0b0b;stop-opacity:0;"
         offset="1"
         id="stop871" />
    </linearGradient>
    <linearGradient
       inkscape:collect="always"
       xlink:href="#linearGradient895"
       id="linearGradient897"
       x1="2685.9844"
       y1="1088.7905"
       x2="2685.9844"
       y2="1770.3615"
       gradientUnits="userSpaceOnUse"
       gradientTransform="matrix(0.04277854,0,0,0.04277854,-95.919086,-44.867312)" />
    <linearGradient
       inkscape:collect="always"
       id="linearGradient895">
      <stop
         style="stop-color:#535859;stop-opacity:1"
         offset="0"
         id="stop891" />
      <stop
         style="stop-color:#050505;stop-opacity:1"
         offset="1"
         id="stop893" />
    </linearGradient>
    <linearGradient
       inkscape:collect="always"
       id="linearGradient879">
      <stop
         style="stop-color:#303334;stop-opacity:1"
         offset="0"
         id="stop875" />
      <stop
         style="stop-color:#1a1a1c;stop-opacity:1"
         offset="1"
         id="stop877" />
    </linearGradient>
    <radialGradient
       inkscape:collect="always"
       xlink:href="#linearGradient873"
       id="radialGradient898"
       gradientUnits="userSpaceOnUse"
       cx="60.636452"
       cy="20.456388"
       fx="60.636452"
       fy="20.456388"
       r="17.303919"
       gradientTransform="translate(-43.433354,-3.9448764)" />
    <radialGradient
       inkscape:collect="always"
       xlink:href="#linearGradient879"
       id="radialGradient993"
       cx="16.786602"
       cy="3.5456841"
       fx="16.786602"
       fy="3.5456841"
       r="13.695572"
       gradientUnits="userSpaceOnUse"
       gradientTransform="matrix(4.8885673,0,0,1.5420669,-65.723642,-0.93384819)" />
    <linearGradient
       inkscape:collect="always"
       xlink:href="#linearGradient1781"
       id="linearGradient1783"
       x1="8.9036779"
       y1="13.042847"
       x2="8.9036779"
       y2="7.7129984"
       gradientUnits="userSpaceOnUse"
       gradientTransform="translate(0.01213097,-0.48685396)" />
    <linearGradient
       inkscape:collect="always"
       id="linearGradient1781">
      <stop
         style="stop-color:#954261;stop-opacity:1"
         offset="0"
         id="stop1777" />
      <stop
         style="stop-color:#ff6322;stop-opacity:0.98363656"
         offset="1"
         id="stop1779" />
    </linearGradient>
  </defs>
  <sodipodi:namedview
     id="base"
     pagecolor="#ffffff"
     bordercolor="#666666"
     borderopacity="1.0"
     inkscape:pageopacity="0.0"
     inkscape:pageshadow="2"
     inkscape:zoom="0.7"
     inkscape:cx="-431.42857"
     inkscape:cy="-149.28571"
     inkscape:document-units="mm"
     inkscape:current-layer="layer1"
     inkscape:document-rotation="0"
     showgrid="false"
     units="px"
     inkscape:window-width="1920"
     inkscape:window-height="1030"
     inkscape:window-x="0"
     inkscape:window-y="24"
     inkscape:window-maximized="1"
     inkscape:pagecheckerboard="0" />
  <metadata
     id="metadata1012">
    <rdf:RDF>
      <cc:Work
         rdf:about="">
        <dc:format>image/svg+xml</dc:format>
        <dc:type
           rdf:resource="http://purl.org/dc/dcmitype/StillImage" />
      </cc:Work>
    </rdf:RDF>
  </metadata>
  <g
     inkscape:label="Capa 1"
     inkscape:groupmode="layer"
     id="layer1">
    <circle
       style="opacity:0.309726;fill:url(#radialGradient898);fill-opacity:1;stroke-width:3;stroke-linecap:square;stroke-linejoin:round"
       id="path867"
       cx="17.203098"
       cy="16.511513"
       r="17.303919" />
    <circle
       style="fill:url(#linearGradient897);fill-opacity:1;stroke:#b1aaaa;stroke-width:0.0575565;stroke-linecap:square;stroke-opacity:0.992157"
       id="circle839"
       cx="17.203098"
       cy="16.511513"
       r="15.118138" />
    <circle
       style="fill:url(#radialGradient993);fill-opacity:1;stroke:none;stroke-width:0.0498826;stroke-linecap:square;stroke-opacity:1"
       id="circle839-3"
       cx="17.203098"
       cy="16.511513"
       r="13.102469" />
    <path
       style="fill:#ffffff;stroke-width:0.510256"
       d="m 15.858817,7.543488 c -3.854758,0 -6.9582271,3.129149 -6.9582271,7.016031 v 2.806412 c 0,3.886882 3.1034691,7.016031 6.9582271,7.016031 h 1.391248 c 3.854758,0 6.958229,-3.129149 6.958229,-7.016031 v -2.806412 c 0,-3.886882 -3.103471,-7.016031 -6.958229,-7.016031 z m 0.32489,3.061541 h 0.741468 c 2.05587,0 3.71132,1.991276 3.71132,4.464746 v 1.7859 c 0,2.473468 -1.65545,4.464747 -3.71132,4.464747 h -0.741468 c -2.05587,0 -3.71132,-1.991279 -3.71132,-4.464747 v -1.7859 c 0,-2.47347 1.65545,-4.464746 3.71132,-4.464746 z"
       id="path8" />
    <rect
       style="fill:#ffffff;fill-opacity:1;stroke-width:0.423333;stroke-linecap:round"
       id="rect1177"
       width="7.5574646"
       height="3.3694029"
       x="28.060604"
       y="-1.7889074"
       rx="1.2164413"
       ry="1.2164413"
       transform="rotate(46.521752)" />
    <g
       id="g1767"
       transform="translate(0.01213097,-0.48685396)">
      <rect
         style="opacity:1;fill:#06062b;fill-opacity:0.0577209;stroke-width:0.423333;stroke-linecap:round"
         id="rect1722"
         width="16.846851"
         height="7.0062599"
         x="0.91569"
         y="6.5898252"
         rx="3.50313"
         ry="3.50313" />
      <rect
         style="opacity:1;fill:#06062b;fill-opacity:0.0577209;stroke-width:0.423333;stroke-linecap:round"
         id="rect1760"
         width="16.846851"
         height="7.0062599"
         x="1.3749672"
         y="7.1197696"
         rx="3.50313"
         ry="3.50313" />
      <rect
         style="opacity:1;fill:#06062b;fill-opacity:0.0577209;stroke-width:0.423333;stroke-linecap:round"
         id="rect1762"
         width="16.846851"
         height="7.0062599"
         x="1.8854846"
         y="7.8649225"
         rx="3.50313"
         ry="3.50313" />
    </g>
    <rect
       style="fill:url(#linearGradient1783);fill-opacity:1;stroke-width:0.423333;stroke-linecap:round"
       id="rect1523"
       width="16.846851"
       height="7.0062599"
       x="0.44563541"
       y="5.5672183"
       rx="3.50313"
       ry="3.50313" />
    <path
       style="fill:#ffffff;stroke-width:0.619283"
       d="M 3.0133079,6.8125688 V 11.147552 H 3.6325913 V 9.309056 h 0.8515149 c 0.387079,0 0.698425,-0.06 0.9349732,-0.181432 C 5.885738,8.89462 6.0918053,8.477522 6.1097256,8.159994 6.1097256,7.7309457 5.9795181,7.3993046 5.7214637,7.1645434 5.4634108,6.9297832 5.0699627,6.8125688 4.5409545,6.8125688 Z m 4.3349846,0 v 4.3349832 h 1.237358 c 0.570173,0 1.022863,-0.190431 1.357101,-0.5709 0.3342415,-0.380476 0.5019595,-0.925756 0.5019595,-1.634086 0,-0.704283 -0.163489,-1.2331439 -0.4898645,-1.5893335 C 9.6324035,6.992996 9.1975455,6.8125688 8.6509655,6.8125688 Z m 4.3349855,0 v 4.3349832 h 0.619283 V 9.289703 h 1.85785 V 8.670419 h -1.85785 V 7.4318525 h 2.477135 V 6.8125688 Z M 3.6325913,7.4318525 H 4.505878 C 5.1431075,7.4759635 5.5016206,7.4832135 5.4904419,8.091051 5.4805319,8.629965 4.7086203,8.611938 4.3244472,8.670419 H 3.6325913 Z m 4.3349842,0 h 0.561226 c 0.432061,0 0.755229,0.1214303 0.971259,0.3640711 0.21603,0.2382311 0.325366,0.6232874 0.325366,1.1526894 0,0.533812 -0.113311,0.928686 -0.33988,1.188975 -0.221299,0.260289 -0.571607,0.390681 -1.051089,0.390681 h -0.466882 z"
       id="path18" />
  </g>
</svg>

<svg width="128" height="128" version="1.1" viewBox="0 0 33.867 33.867" xmlns="http://www.w3.org/2000/svg">
<defs>
<linearGradient id="linearGradient897" x1="2686" x2="2686" y1="1088.8" y2="1770.4" gradientTransform="matrix(.042779 0 0 .042779 -95.919 -44.867)" gradientUnits="userSpaceOnUse"/>
<radialGradient id="radialGradient898" cx="60.636" cy="20.456" r="17.304" gradientTransform="translate(-43.433 -3.9449)" gradientUnits="userSpaceOnUse"/>
<radialGradient id="radialGradient993" cx="16.787" cy="3.5457" r="13.696" gradientTransform="matrix(4.8886 0 0 1.5421 -65.724 -.93385)" gradientUnits="userSpaceOnUse"/>
<linearGradient id="linearGradient1783" x1="8.9037" x2="8.9037" y1="13.043" y2="7.713" gradientTransform="translate(.012131 -.48685)" gradientUnits="userSpaceOnUse"/>
</defs>
<circle cx="17.203" cy="16.512" r="17.304" fill="url(#radialGradient898)" opacity=".30973" stroke-linecap="square" stroke-linejoin="round" stroke-width="3"/>
<circle cx="17.203" cy="16.512" r="15.118" fill="url(#linearGradient897)" stroke="#b1aaaa" stroke-linecap="square" stroke-opacity=".99216" stroke-width=".057556"/>
<circle cx="17.203" cy="16.512" r="13.102" fill="url(#radialGradient993)"/>
<path d="m15.859 7.5435c-3.8548 0-6.9582 3.1291-6.9582 7.016v2.8064c0 3.8869 3.1035 7.016 6.9582 7.016h1.3912c3.8548 0 6.9582-3.1291 6.9582-7.016v-2.8064c0-3.8869-3.1035-7.016-6.9582-7.016zm0.32489 3.0615h0.74147c2.0559 0 3.7113 1.9913 3.7113 4.4647v1.7859c0 2.4735-1.6554 4.4647-3.7113 4.4647h-0.74147c-2.0559 0-3.7113-1.9913-3.7113-4.4647v-1.7859c0-2.4735 1.6554-4.4647 3.7113-4.4647z" fill="#fff" stroke-width=".51026"/>
<rect transform="rotate(46.522)" x="28.061" y="-1.7889" width="7.5575" height="3.3694" rx="1.2164" ry="1.2164" fill="#fff" stroke-linecap="round" stroke-width=".42333"/>
<g transform="translate(.012131 -.48685)" fill="#06062b" fill-opacity=".057721" stroke-linecap="round" stroke-width=".42333">
<rect x=".91569" y="6.5898" width="16.847" height="7.0063" rx="3.5031" ry="3.5031"/>
<rect x="1.375" y="7.1198" width="16.847" height="7.0063" rx="3.5031" ry="3.5031"/>
<rect x="1.8855" y="7.8649" width="16.847" height="7.0063" rx="3.5031" ry="3.5031"/>
</g>
<rect x=".44564" y="5.5672" width="16.847" height="7.0063" rx="3.5031" ry="3.5031" fill="url(#linearGradient1783)" stroke-linecap="round" stroke-width=".42333"/>
<path d="m3.0133 6.8126v4.335h0.61928v-1.8385h0.85151c0.38708 0 0.69842-0.06 0.93497-0.18143 0.46666-0.233 0.67273-0.6501 0.69065-0.96763 0-0.42905-0.13021-0.76069-0.38826-0.99545-0.25805-0.23476-0.6515-0.35197-1.1805-0.35197zm4.335 0v4.335h1.2374c0.57017 0 1.0229-0.19043 1.3571-0.5709 0.33424-0.38048 0.50196-0.92576 0.50196-1.6341 0-0.70428-0.16349-1.2331-0.48986-1.5893-0.32244-0.36024-0.7573-0.54066-1.3039-0.54066zm4.335 0v4.335h0.61928v-1.8578h1.8578v-0.61928h-1.8578v-1.2386h2.4771v-0.61928zm-8.0507 0.61928h0.87329c0.63723 0.044111 0.99574 0.051361 0.98456 0.6592-0.00991 0.53891-0.78182 0.52089-1.166 0.57937h-0.69186zm4.335 0h0.56123c0.43206 0 0.75523 0.12143 0.97126 0.36407 0.21603 0.23823 0.32537 0.62329 0.32537 1.1527 0 0.53381-0.11331 0.92869-0.33988 1.189-0.2213 0.26029-0.57161 0.39068-1.0511 0.39068h-0.46688z" fill="#fff" stroke-width=".61928"/>
</svg>
